X:1365
T: Pretty Welsh Maid
S: B.Breathnach:"Ceol Rince na hEireann" IV/157 (gan ainm)
Z: B.Black
L: 1/8
M: 4/4
R: reel
K: G
dc|BGGF DGGA|BGGB d2 cA|BGGF DFGB|AGAB c2 dc|
BGGF DGGA|BGGB d2 cA|BGGF DFGB|A2 AB c2 BA ||
Bddc BG G2|Bd d2 e2 dc|Bddc BG G2 AGAB c2 BA|
Bddc BG G2|Bd d2 e2 ef|gfed efdB|A2 AB c2 dc ||
